rospo-icon-theme-classic-common/16x16/apps/spacemacs.svg

<svg height="16" width="16" xmlns="http://www.w3.org/2000/svg"><rect fill="#8366b2" fill-opacity=".992" height="16" rx="8" transform="matrix(0 -1 -1 0 0 0)" width="16" x="-16" y="-16"/><path d="m1.8416936.00047109c-.4611168-.00954113-.8248382.12568749-1.14336457.42032338-.30375691.28242161-.57812541.67847253-.64832903 1.17822303-.116163.8269161.15822945 1.9377503.54304039 3.2875174.04409571-.0946285.08840601-.1887885.13591921-.2812573-.42094995-1.7354676-.59994343-2.2348498.08213763-2.8610115.54802937-.5008504 1.41608107-.5418363 2.50106327-.1179717 1.9282902.7532975 4.0818062 1.9857856 6.2746902 4.9220022.20696.2771135.152676.264577.3291493.4967034-.5616643.0106363-1.2138306-.0471198-1.9482315-.1863618-2.7628099-.5237611-4.5648351-1.3428191-5.7847966-2.6854029-.1092415-.1202216-.1989735-.2099815-.199398-.2000052-.0005009.01024.2455974.537121.5466642 1.1703426l.4533132 1.1070599c2.4841656 1.6900862 5.3237174 2.7901891 7.7810167 4.1813574.807304.45943 1.627795 1.019712 2.041776 1.393786.141059.127983.173567.160747.185956.174224.000459-.0096.01082-.05646.0068-.09454-.02683-.207701-.181362-1.029018-.324862-1.78911-.03105-.1721695-.06475-.3437372-.09709-.515638-.01486-.078337-.03457-.1849724-.0478-.2546942-.02107-.1108858-.04489-.2157597-.0665-.3250013-.304249-1.5409654-.65882-3.0706522-1.109048-4.5766807-.207618-.6859432-.33812-1.0187895-.551891-1.425818-.079119-.1506947-.9534283-.7685087-1.1037843-.8515845-.0024-.00131-.01249-.012079-.01419-.0125l-.000765.00235c-.0055-.00287-.04378-.03137-.04629-.032033l-.000765.00157c-.002-.000684-.0033-.00138-.0037-.00157-.0088.00855.05988.1662494.133679.3031329.7558383 1.4023652 1.1107013 3.3072559.8582113 4.4854496-.0042.018305-.0078.036569-.01419.05547-.000322.00096-.0013.0032-.0015.00392v.0008001c-.000613-.0002001-.0018-.0006401-.0023-.0008001-.0059.00228-.02311.00481-.03062.00703-.206263-.2790295-.244755-.3189373-.496697-.6666187-1.5473881-2.0957253-4.3728934-5.1732816-7.2910972-6.14234609-.3577326-.10707745-.6695371-.16459222-.9462072-.17031692z" fill="#fff"/></svg>

<svg xmlns="http://www.w3.org/2000/svg" width="16" height="16" version="1">
 <rect width="16" height="16" x="-16" y="-16" rx="8" ry="8" transform="matrix(0,-1,-1,0,0,0)" style="fill:#8366b2;fill-opacity:0.99199997"/>
 <path d="M 1.8416936,4.7109e-4 C 1.3805768,-0.00907004 1.0168554,0.12615858 0.69832903,0.42079447 0.39457212,0.70321608 0.12020362,1.099267 0.05,1.5990175 -0.066163,2.4259336 0.20822945,3.5367678 0.59304039,4.8865349 0.6371361,4.7919064 0.6814464,4.6977464 0.7289596,4.6052776 0.30800965,2.86981 0.12901617,2.3704278 0.81109723,1.7442661 1.3591266,1.2434157 2.2271783,1.2024298 3.3121605,1.6262944 5.2404507,2.3795919 7.3939667,3.61208 9.5868507,6.5482966 9.7938107,6.8254101 9.7395267,6.8128736 9.916,7.045 9.3543357,7.0556363 8.7021694,6.9978802 7.9677685,6.8586382 5.2049586,6.3348771 3.4029334,5.5158191 2.1829719,4.1732353 2.0737304,4.0530137 1.9839984,3.9632538 1.9835739,3.9732301 c -5.009e-4,0.01024 0.2455974,0.537121 0.5466642,1.1703426 l 0.4533132,1.1070599 c 2.4841656,1.6900862 5.3237174,2.7901891 7.7810167,4.1813574 0.807304,0.45943 1.627795,1.019712 2.041776,1.393786 0.141059,0.127983 0.173567,0.160747 0.185956,0.174224 4.59e-4,-0.0096 0.01082,-0.05646 0.0068,-0.09454 -0.02683,-0.207701 -0.181362,-1.029018 -0.324862,-1.78911 -0.03105,-0.1721695 -0.06475,-0.3437372 -0.09709,-0.515638 -0.01486,-0.078337 -0.03457,-0.1849724 -0.0478,-0.2546942 C 12.508278,9.235132 12.484458,9.1302581 12.462848,9.0210165 12.158599,7.4800511 11.804028,5.9503643 11.3538,4.4443358 11.146182,3.7583926 11.01568,3.4255463 10.801909,3.0185178 10.72279,2.8678231 9.8484807,2.2500091 9.6981247,2.1669333 c -0.0024,-0.00131 -0.01249,-0.012079 -0.01419,-0.0125 l -7.65e-4,0.00235 c -0.0055,-0.00287 -0.04378,-0.03137 -0.04629,-0.032033 l -7.65e-4,0.00157 c -0.002,-6.84e-4 -0.0033,-0.00138 -0.0037,-0.00157 -0.0088,0.00855 0.05988,0.1662494 0.133679,0.3031329 0.7558383,1.4023652 1.1107013,3.3072559 0.8582113,4.4854496 -0.0042,0.018305 -0.0078,0.036569 -0.01419,0.05547 -3.22e-4,9.6e-4 -0.0013,0.0032 -0.0015,0.00392 l 0,8.001e-4 c -6.13e-4,-2.001e-4 -0.0018,-6.401e-4 -0.0023,-8.001e-4 -0.0059,0.00228 -0.02311,0.00481 -0.03062,0.00703 C 10.369432,6.7007233 10.33094,6.6608155 10.078998,6.3131341 8.5316099,4.2174088 5.7061046,1.1398525 2.7879008,0.17078801 2.4301682,0.06371056 2.1183637,0.00619579 1.8416936,4.7109e-4 Z" style="fill:#ffffff"/>
</svg>
